!!!OTL: DIE GEDANKEN SIND FREI
!!!ARE: Europa, Mitteleuropa, Deutschland
!!!SCT: E1803
!!!YEM: Copyright 1995, estate of Helmut Schaffrath.
**kern
*ICvox
*Ivox
*M3/4
*k[]
*C:
{8G
8G
=1
4.c
8d
8e
8c
=2
2G}
{4E
=3
4G
4F
4D
=4
4F
4E}
{4G
=5
4.c
8d
8e
8c
=6
2G}
{4E
=7
4G
4F
4D
=8
4D
4C}
{4c
=9
4B
4.d
8B
=10
4c
4e}
{4c
=11
4B
4.d
8B
=12
4c
4e}
{4c
=13
4.A
8B
8c
8A
=14
4G
4c}
{8e
8g
=15
4f
4d
4B
=16
2c}
==
!!!AGN: Freiheits - Lied
!!!ONB: ESAC (Essen Associative Code) Database: ERK3
!!!AMT: simple triple
!!!AIN: vox
!!!EED: Helmut Schaffrath
!!!EEV: 1.0
*-
